;FLAVOR:Marlin
;TIME:22647
;Filament used: 17.102m
;Layer height: 0.16
;MINX:84.181
;MINY:74.448
;MINZ:0.12
;MAXX:154.491
;MAXY:165.36
;MAXZ:106.2
;TARGET_MACHINE.NAME:Creality Ender-3
;Generated with Cura_SteamEngine 5.5.0
M140 S50
M105
M190 S50
M104 S200
M105
M109 S200
M82 ;absolute extrusion mode
; Ender 3 Custom Start G-code
G92 E0 ; Reset Extruder
G28 ; Home all axes
G1 Z2.0 F3000 ; Move Z Axis up little to prevent scratching of Heat Bed
G1 X0.1 Y20 Z0.3 F5000.0 ; Move to start position
G1 X0.1 Y200.0 Z0.3 F1500.0 E15 ; Draw the first line
G1 X0.4 Y200.0 Z0.3 F5000.0 ; Move to side a little
G1 X0.4 Y20 Z0.3 F1500.0 E30 ; Draw the second line
G92 E0 ; Reset Extruder
G1 Z2.0 F3000 ; Move Z Axis up little to prevent scratching of Heat Bed
G1 X5 Y20 Z0.3 F5000.0 ; Move over to prevent blob squish
G92 E0
G92 E0
G1 F2700 E-5
;LAYER_COUNT:664
;LAYER:0
M107
G0 F6000 X92.05 Y88.434 Z0.12
;TYPE:SKIRT
G1 F2700 E0
G1 F1200 X92.944 Y87.502 E0.02577
G1 X93.525 Y86.967 E0.04153
G1 X94.859 Y85.775 E0.07723
G1 X95.533 Y85.19 E0.09504
G1 X96.3 Y84.587 E0.11452
G1 X97.123 Y84.05 E0.13413
G1 X99.209 Y82.821 E0.18244
G1 X101.334 Y81.491 E0.23247
G1 X103.422 Y80.099 E0.28255
G1 X105.495 Y78.632 E0.33323
G1 X108.12 Y76.647 E0.3989
G1 X108.864 Y76.135 E0.41693
G1 X109.774 Y75.622 E0.43777
G1 X110.662 Y75.223 E0.4572
G1 X111.582 Y74.903 E0.47664
G1 X112.527 Y74.667 E0.49608
G1 X113.489 Y74.514 E0.51552
G1 X114.46 Y74.448 E0.53494
G1 X115.435 Y74.467 E0.5544
G1 X116.407 Y74.573 E0.57391
G1 X117.005 Y74.673 E0.58601
G1 X122.405 Y75.711 E0.69575
G1 X123.161 Y75.869 E0.71116
G1 X124.036 Y76.092 E0.72918
G1 X125.008 Y76.433 E0.74974
G1 X125.503 Y76.647 E0.7605
G1 X126.569 Y77.145 E0.78398
G1 X127.249 Y77.484 E0.79914
G1 X128.099 Y77.959 E0.81857
G1 X128.904 Y78.507 E0.83801
G1 X129.656 Y79.123 E0.85741
G1 X130.303 Y79.753 E0.87543
G1 X130.736 Y80.239 E0.88842
G1 X132.482 Y82.316 E0.94257
G1 X134.16 Y84.198 E0.99288
G1 X135.887 Y86.033 E1.04317
G1 X137.655 Y87.806 E1.09314
G1 X139.488 Y89.542 E1.14352
G1 X141.36 Y91.218 E1.19366
G1 X144.304 Y93.674 E1.27017
G1 X144.677 Y93.972 E1.2797
G1 X145.41 Y94.614 E1.29914
G1 X146.036 Y95.266 E1.31718
G1 X146.689 Y96.081 E1.33802
G1 X147.226 Y96.892 E1.35743
G1 X147.691 Y97.75 E1.37691
G1 X148.081 Y98.658 E1.39663
G1 X148.483 Y99.953 E1.42369
G1 X149.257 Y103.172 E1.48976
G1 X149.904 Y105.597 E1.53985
G1 X150.625 Y108.016 E1.59022
G1 X151.404 Y110.389 E1.64006
G1 X152.258 Y112.761 E1.69037
G1 X153.262 Y115.313 E1.7451
G1 X153.683 Y116.341 E1.76727
G1 X154.011 Y117.257 E1.78668
G1 X154.241 Y118.13 E1.8047
G1 X154.417 Y119.162 E1.82559
G1 X154.491 Y120.131 E1.84498
G1 X154.482 Y121.096 E1.86424
G1 X154.422 Y121.782 E1.87798
G1 X154.311 Y122.708 E1.8966
G1 X153.25 Y130.62 E2.0559
G1 X152.941 Y133.212 E2.10799
G1 X152.778 Y134.9 E2.14184
G1 X152.681 Y136.013 E2.16413
G1 X152.563 Y136.909 E2.18217
G1 X152.334 Y137.93 E2.20305
G1 X152.035 Y138.857 E2.22249
G1 X151.668 Y139.727 E2.24133
G1 X151.022 Y140.903 E2.26811
G1 X150.355 Y141.95 E2.29288
G1 X150.205 Y142.204 E2.29877
G1 X149.419 Y143.418 E2.32763
G1 X148.936 Y144.189 E2.34578
G1 X148.538 Y144.791 E2.36019
G1 X142.923 Y153.1 E2.56031
G1 X142.429 Y153.809 E2.57756
G1 X141.862 Y154.549 E2.59616
G1 X141.456 Y155.009 E2.6084
G1 X140.707 Y155.807 E2.63025
G1 X137.966 Y158.632 E2.7088
G1 X137.347 Y159.249 E2.72624
G1 X136.627 Y159.905 E2.74568
G1 X135.91 Y160.454 E2.7637
G1 X135.026 Y161.012 E2.78456
G1 X134.223 Y161.426 E2.80259
G1 X132.887 Y161.943 E2.83118
G1 X132.054 Y162.203 E2.84859
G1 X127.622 Y163.529 E2.94091
G1 X126.472 Y163.851 E2.96474
G1 X125.825 Y164.01 E2.97804
G1 X121.358 Y165.003 E3.06936
G1 X120.666 Y165.144 E3.08345
G1 X119.705 Y165.294 E3.10286
G1 X118.732 Y165.36 E3.12232
G1 X117.759 Y165.339 E3.14174
G1 X116.861 Y165.242 E3.15977
G1 X115.838 Y165.039 E3.18058
G1 X114.971 Y164.786 E3.19861
G1 X114.383 Y164.57 E3.21111
G1 X113.619 Y164.26 E3.22756
G1 X103.551 Y160.001 E3.44572
G1 X101.495 Y159.192 E3.48981
G1 X100.513 Y158.747 E3.51132
G1 X99.453 Y158.197 E3.53515
G1 X98.121 Y157.468 E3.56546
G1 X97.29 Y156.962 E3.58487
G1 X96.505 Y156.383 E3.60434
G1 X95.776 Y155.738 E3.62376
G1 X95.153 Y155.084 E3.64179
G1 X94.552 Y154.335 E3.66095
G1 X93.788 Y153.288 E3.68682
G1 X90.165 Y148.129 E3.81262
G1 X89.747 Y147.512 E3.82749
G1 X89.236 Y146.682 E3.84695
G1 X88.803 Y145.811 E3.86636
G1 X88.446 Y144.903 E3.88583
G1 X88.185 Y144.014 E3.90432
G1 X88.001 Y143.27 E3.91961
G1 X86.492 Y136.627 E4.05556
G1 X86.221 Y135.321 E4.08217
G1 X85.106 Y129.023 E4.20981
G1 X84.987 Y128.256 E4.2253
G1 X84.812 Y126.892 E4.25274
G1 X84.31 Y122.298 E4.34497
G1 X84.226 Y121.421 E4.36255
G1 X84.181 Y120.447 E4.38201
G1 X84.223 Y119.475 E4.40142
G1 X84.346 Y118.536 E4.42032
G1 X84.662 Y117.216 E4.44741
G1 X85.248 Y115.368 E4.4861
G1 X85.983 Y112.877 E4.53793
G1 X86.62 Y110.476 E4.5875
G1 X87.184 Y108.066 E4.63689
G1 X87.708 Y105.509 E4.68898
G1 X88.133 Y103.083 E4.73813
G1 X88.495 Y100.607 E4.78807
G1 X89.045 Y95.976 E4.88113
G1 X89.279 Y94.342 E4.91407
G1 X89.462 Y93.387 E4.93348
G1 X89.729 Y92.449 E4.95294
G1 X90.078 Y91.54 E4.97237
G1 X90.492 Y90.692 E4.99121
G1 X91.198 Y89.559 E5.01785
G1 X91.493 Y89.145 E5.02799
G1 X92.05 Y88.434 E5.04601
G0 F6000 X92.365 Y88.681
G1 F1200 X93.215 Y87.796 E5.0705
G1 X93.791 Y87.265 E5.08614
G1 X95.121 Y86.077 E5.12172
G1 X95.781 Y85.504 E5.13917
G1 X96.519 Y84.922 E5.15792
G1 X97.326 Y84.395 E5.17716
G1 X99.412 Y83.166 E5.22547
G1 X101.556 Y81.824 E5.27595
G1 X103.653 Y80.426 E5.32624
G1 X105.726 Y78.959 E5.37692
G1 X108.347 Y76.977 E5.4425
G1 X109.091 Y76.465 E5.46052
G1 X109.939 Y75.987 E5.47995
G1 X110.794 Y75.601 E5.49867
G1 X111.68 Y75.291 E5.5174
G1 X112.59 Y75.062 E5.53613
G1 X113.517 Y74.913 E5.55487
G1 X114.453 Y74.848 E5.57359
G1 X115.392 Y74.865 E5.59233
G1 X116.341 Y74.968 E5.61138
G1 X116.929 Y75.066 E5.62328
G1 X122.323 Y76.103 E5.73289
G1 X123.062 Y76.257 E5.74796
G1 X123.937 Y76.48 E5.76598
G1 X124.849 Y76.8 E5.78526
G1 X125.334 Y77.01 E5.79581
G1 X126.391 Y77.503 E5.81909
G1 X127.054 Y77.833 E5.83386
G1 X127.874 Y78.29 E5.8526
G1 X128.651 Y78.817 E5.87133
G1 X129.377 Y79.41 E5.89004
G1 X130.024 Y80.04 E5.90806
G1 X130.43 Y80.496 E5.92025
G1 X132.183 Y82.582 E5.97462
G1 X133.861 Y84.464 E6.02494
G1 X135.604 Y86.315 E6.07568
G1 X137.38 Y88.096 E6.12587
G1 X139.221 Y89.84 E6.17648
G1 X141.093 Y91.516 E6.22662
G1 X144.055 Y93.987 E6.3036
G1 X144.414 Y94.273 E6.31276
G1 X145.121 Y94.891 E6.3315
G1 X145.747 Y95.543 E6.34954
G1 X146.356 Y96.302 E6.36896
G1 X146.875 Y97.083 E6.38767
G1 X147.324 Y97.909 E6.40643
G1 X147.699 Y98.777 E6.4253
G1 X148.101 Y100.072 E6.45236
G1 X148.868 Y103.265 E6.51789
G1 X149.521 Y105.711 E6.56841
G1 X150.245 Y108.141 E6.61901
G1 X151.028 Y110.525 E6.66909
G1 X151.886 Y112.907 E6.71961
G1 X152.892 Y115.465 E6.77447
G1 X153.307 Y116.476 E6.79628
G1 X153.624 Y117.359 E6.815
G1 X153.854 Y118.232 E6.83302
G1 X154.018 Y119.193 E6.85247
G1 X154.091 Y120.128 E6.87119
G1 X154.083 Y121.062 E6.88983
G1 X154.025 Y121.735 E6.90331
G1 X153.915 Y122.655 E6.9218
G1 X152.854 Y130.567 E7.0811
G1 X152.544 Y133.165 E7.13332
G1 X152.38 Y134.862 E7.16734
G1 X152.284 Y135.961 E7.18935
G1 X152.166 Y136.857 E7.20739
G1 X151.953 Y137.808 E7.22684
G1 X151.666 Y138.702 E7.24558
G1 X151.317 Y139.534 E7.26358
G1 X150.671 Y140.71 E7.29036
G1 X150.01 Y141.747 E7.3149
G1 X149.869 Y141.987 E7.32045
G1 X149.083 Y143.201 E7.34931
G1 X148.602 Y143.969 E7.3674
G1 X148.207 Y144.567 E7.3817
G1 X142.595 Y152.871 E7.58171
G1 X142.111 Y153.566 E7.59861
G1 X141.562 Y154.284 E7.61665
G1 X141.164 Y154.735 E7.62865
G1 X140.42 Y155.528 E7.65035
G1 X137.683 Y158.349 E7.72879
G1 X137.077 Y158.954 E7.74588
G1 X136.384 Y159.587 E7.76461
G1 X135.667 Y160.136 E7.78263
G1 X134.843 Y160.656 E7.80207
G1 X134.04 Y161.07 E7.8201
G1 X132.768 Y161.561 E7.84731
G1 X131.939 Y161.82 E7.86465
G1 X127.514 Y163.144 E7.95682
G1 X126.377 Y163.463 E7.98039
G1 X125.738 Y163.62 E7.99352
G1 X121.278 Y164.611 E8.08469
G1 X120.604 Y164.749 E8.09842
G1 X119.677 Y164.895 E8.11715
G1 X118.74 Y164.96 E8.13589
G1 X117.802 Y164.941 E8.15462
G1 X116.904 Y164.844 E8.17264
G1 X115.95 Y164.655 E8.19205
G1 X115.083 Y164.402 E8.21007
G1 X114.533 Y164.199 E8.22177
G1 X113.775 Y163.892 E8.23809
G1 X103.707 Y159.633 E8.45625
G1 X101.66 Y158.828 E8.50014
G1 X100.697 Y158.392 E8.52124
G1 X99.645 Y157.846 E8.54489
G1 X98.328 Y157.126 E8.57484
G1 X97.527 Y156.64 E8.59354
G1 X96.77 Y156.083 E8.6123
G1 X96.066 Y155.462 E8.63103
G1 X95.443 Y154.808 E8.64906
G1 X94.875 Y154.099 E8.66718
G1 X94.115 Y153.058 E8.69291
G1 X90.496 Y147.904 E8.81858
G1 X90.087 Y147.302 E8.83311
G1 X89.594 Y146.503 E8.85184
G1 X89.175 Y145.664 E8.87056
G1 X88.83 Y144.79 E8.88931
G1 X88.573 Y143.918 E8.90745
G1 X88.391 Y143.181 E8.9226
G1 X86.884 Y136.546 E9.05838
G1 X86.615 Y135.251 E9.08478
G1 X85.501 Y128.962 E9.21223
G1 X85.384 Y128.205 E9.22752
G1 X85.21 Y126.848 E9.25482
G1 X84.708 Y122.26 E9.34693
G1 X84.626 Y121.402 E9.36413
G1 X84.581 Y120.464 E9.38287
G1 X84.62 Y119.527 E9.40158
G1 X84.743 Y118.588 E9.42048
G1 X85.051 Y117.31 E9.44672
G1 X85.632 Y115.481 E9.48501
G1 X86.367 Y112.99 E9.53684
G1 X87.006 Y110.578 E9.58664
G1 X87.576 Y108.146 E9.63649
G1 X88.1 Y105.589 E9.68857
G1 X88.527 Y103.152 E9.73795
G1 X88.891 Y100.665 E9.78811
G1 X89.441 Y96.033 E9.88119
G1 X89.672 Y94.417 E9.91377
G1 X89.847 Y93.496 E9.93248
G1 X90.103 Y92.592 E9.95123
G1 X90.438 Y91.715 E9.96996
G1 X90.832 Y90.903 E9.98797
G1 X91.524 Y89.791 E10.01411
G1 X91.808 Y89.392 E10.02388
G1 X92.365 Y88.681 E10.04191
G0 F6000 X92.68 Y88.928
G1 F1200 X93.486 Y88.09 E10.06511
G1 X94.057 Y87.563 E10.08062
G1 X95.383 Y86.379 E10.11609
G1 X96.029 Y85.818 E10.13317
G1 X96.738 Y85.257 E10.15121
G1 X97.529 Y84.74 E10.17007
G1 X99.615 Y83.511 E10.21838
G1 X101.778 Y82.157 E10.26931
G1 X103.884 Y80.753 E10.31982
G1 X105.957 Y79.286 E10.3705
G1 X108.574 Y77.307 E10.43598
G1 X109.318 Y76.795 E10.454
G1 X110.104 Y76.351 E10.47201
G1 X110.926 Y75.978 E10.49003
G1 X111.778 Y75.679 E10.50805
G1 X112.654 Y75.457 E10.52608
G1 X113.545 Y75.312 E10.5441
G1 X114.446 Y75.248 E10.56212
G1 X115.349 Y75.263 E10.58014
G1 X116.298 Y75.366 E10.59919
G1 X116.853 Y75.459 E10.61042
G1 X122.242 Y76.495 E10.71994
G1 X122.963 Y76.645 E10.73463
G1 X123.838 Y76.868 E10.75265
G1 X124.69 Y77.167 E10.77067
G1 X125.165 Y77.373 E10.781
G1 X126.213 Y77.861 E10.80407
G1 X126.86 Y78.183 E10.8185
G1 X127.65 Y78.621 E10.83652
G1 X128.398 Y79.127 E10.85455
G1 X129.098 Y79.697 E10.87256
G1 X129.745 Y80.327 E10.89058
G1 X130.124 Y80.753 E10.90196
G1 X131.884 Y82.848 E10.95656
G1 X133.562 Y84.73 E11.00688
G1 X135.321 Y86.597 E11.05807
G1 X137.105 Y88.386 E11.10849
G1 X138.954 Y90.138 E11.15932
G1 X140.826 Y91.814 E11.20946
G1 X143.806 Y94.3 E11.28691
G1 X144.151 Y94.575 E11.29571
G1 X144.832 Y95.168 E11.31373
G1 X145.458 Y95.82 E11.33177
G1 X146.023 Y96.524 E11.34979
G1 X146.524 Y97.275 E11.3678
G1 X146.957 Y98.068 E11.38583
G1 X147.317 Y98.896 E11.40385
G1 X147.712 Y100.166 E11.43039
G1 X148.48 Y103.359 E11.49593
G1 X149.138 Y105.825 E11.54686
G1 X149.865 Y108.266 E11.59769
G1 X150.652 Y110.661 E11.648
G1 X151.514 Y113.053 E11.69874
G1 X152.522 Y115.617 E11.75372
G1 X152.931 Y116.611 E11.77517
G1 X153.237 Y117.461 E11.7932
G1 X153.467 Y118.334 E11.81121
G1 X153.619 Y119.225 E11.82925
G1 X153.691 Y120.125 E11.84727
G1 X153.684 Y121.028 E11.86529
G1 X153.628 Y121.688 E11.87851
G1 X153.519 Y122.602 E11.89688
G1 X152.458 Y130.514 E12.05618
G1 X152.147 Y133.118 E12.10852
G1 X151.982 Y134.823 E12.1427
G1 X151.887 Y135.909 E12.16446
G1 X151.769 Y136.805 E12.18249
G1 X151.572 Y137.686 E12.20051
G1 X151.297 Y138.547 E12.21855
G1 X150.948 Y139.379 E12.23655
G1 X150.333 Y140.495 E12.26198
G1 X149.673 Y141.533 E12.28653
G1 X149.533 Y141.77 E12.29202
G1 X148.747 Y142.984 E12.32088
G1 X148.268 Y143.749 E12.33889
G1 X147.876 Y144.343 E12.35309
G1 X142.267 Y152.642 E12.55299
G1 X141.793 Y153.323 E12.56955
G1 X141.244 Y154.041 E12.58758
G1 X140.872 Y154.461 E12.59878
G1 X140.133 Y155.249 E12.62034
G1 X137.396 Y158.07 E12.69878
G1 X136.807 Y158.659 E12.7154
G1 X136.141 Y159.269 E12.73342
G1 X135.424 Y159.818 E12.75144
G1 X134.66 Y160.3 E12.76947
G1 X133.857 Y160.714 E12.7875
G1 X132.648 Y161.179 E12.81335
G1 X131.824 Y161.437 E12.83058
G1 X127.406 Y162.759 E12.92261
G1 X126.282 Y163.075 E12.94591
G1 X125.651 Y163.23 E12.95888
G1 X121.197 Y164.219 E13.04993
G1 X120.541 Y164.354 E13.06329
G1 X119.649 Y164.496 E13.08132
G1 X118.748 Y164.56 E13.09934
G1 X117.845 Y164.543 E13.11737
G1 X116.947 Y164.446 E13.13539
G1 X116.062 Y164.271 E13.15339
G1 X115.195 Y164.018 E13.17142
G1 X114.683 Y163.828 E13.18232
G1 X113.931 Y163.524 E13.1985
G1 X103.863 Y159.265 E13.41666
G1 X101.825 Y158.464 E13.46036
G1 X100.881 Y158.037 E13.48103
G1 X99.837 Y157.495 E13.50451
G1 X98.535 Y156.784 E13.53411
G1 X97.763 Y156.317 E13.55212
G1 X97.034 Y155.783 E13.57015
G1 X96.356 Y155.186 E13.58818
G1 X95.733 Y154.532 E13.6062
G1 X95.198 Y153.863 E13.6233
G1 X94.442 Y152.828 E13.64888
G1 X90.827 Y147.679 E13.77443
G1 X90.427 Y147.092 E13.7886
G1 X89.952 Y146.324 E13.80662
G1 X89.547 Y145.517 E13.82464
G1 X89.214 Y144.677 E13.84267
G1 X88.961 Y143.822 E13.86047
G1 X88.781 Y143.092 E13.87547
G1 X87.276 Y136.465 E14.01109
G1 X87.009 Y135.181 E14.03726
G1 X85.896 Y128.901 E14.16454
G1 X85.781 Y128.154 E14.17962
G1 X85.608 Y126.804 E14.20678
G1 X85.106 Y122.222 E14.29877
G1 X85.026 Y121.382 E14.31561
G1 X84.981 Y120.48 E14.33363
G1 X85.017 Y119.578 E14.35164
G1 X85.132 Y118.682 E14.36967
G1 X85.44 Y117.404 E14.3959
G1 X86.016 Y115.594 E14.43381
G1 X86.751 Y113.103 E14.48564
G1 X87.392 Y110.68 E14.53566
G1 X87.968 Y108.226 E14.58596
G1 X88.492 Y105.669 E14.63805
G1 X88.921 Y103.221 E14.68764
G1 X89.287 Y100.723 E14.73803
G1 X89.837 Y96.089 E14.83115
G1 X90.065 Y94.491 E14.86337
G1 X90.232 Y93.604 E14.88138
G1 X90.477 Y92.734 E14.89941
G1 X90.798 Y91.89 E14.91743
G1 X91.192 Y91.078 E14.93545
G1 X91.863 Y90.003 E14.96073
G1 X92.123 Y89.639 E14.96966
G1 X92.68 Y88.928 E14.98769
G1 F2700 E9.98769
;MESH:fox.stl
G0 F6000 X105.687 Y108.74
G0 X106.28 Y109.648
G0 X96.451 Y120.921
G0 X96.979 Y125.769
G0 X98.389 Y133.732
G0 X99.871 Y140.248
G0 X104.571 Y146.938
G0 X105.559 Y147.472
G0 X118.63 Y153.156
;TYPE:WALL-INNER
G1 F2700 E14.98769
G1 F1200 X122.934 Y152.199 E15.07567
G1 X129.148 Y150.34 E15.20511
G1 X132.235 Y147.16 E15.29356
G1 X138.97 Y137.193 E15.53361
G1 X139.849 Y134.945 E15.58178
G1 X140.041 Y134.665 E15.58856
G1 X140.341 Y134.453 E15.59589
G1 X140.596 Y134.337 E15.60148
G1 X140.738 Y132.412 E15.64
G1 X142.31 Y120.683 E15.87615
G1 X140.508 Y117.516 E15.94887
G1 X137.636 Y106.538 E16.17532
G1 X136.948 Y103.449 E16.23848
G1 X134.164 Y103.026 E16.29467
G1 X126.929 Y102.862 E16.43909
G1 X126.714 Y102.821 E16.44346
G1 X126.443 Y102.689 E16.44947
G1 X124.147 Y100.754 E16.50939
G1 X123.984 Y100.545 E16.51468
G1 X123.89 Y100.35 E16.519
G1 X121.44 Y87.994 E16.77038
G1 X120.576 Y87.58 E16.7895
G1 X115.076 Y86.521 E16.90128
G1 X110.433 Y91.476 E17.03679
G1 X110.223 Y91.618 E17.04184
G1 X103.235 Y94.386 E17.19184
G1 X101.358 Y96.062 E17.24206
G1 X101.036 Y98.425 E17.28965
G1 X102.666 Y100.165 E17.33723
G1 X102.801 Y100.434 E17.34323
G1 X102.854 Y100.688 E17.34841
G1 X102.902 Y101.331 E17.36128
G1 X108.85 Y107.339 E17.52999
G1 X108.987 Y107.559 E17.53517
G1 X109.074 Y107.885 E17.5419
G1 X109.071 Y108.095 E17.54609
G1 X108.987 Y108.391 E17.55223
G1 X108.771 Y108.714 E17.55998
G1 X106.654 Y110.097 E17.61045
G1 X96.279 Y120.862 E17.90881
G1 X96.82 Y125.793 E18.0078
G1 X98.232 Y133.764 E18.16935
